Hatter-kde/actions/24/format-text-italic.svg

<?xml version="1.0" encoding="UTF-8"?>
<svg viewBox="0 0 24 24" xmlns="http://www.w3.org/2000/svg">
 <defs id="defs3051">
  <style id="current-color-scheme" type="text/css">.ColorScheme-Text {
        color:#363636;
      }</style>
 </defs>
 <path class="ColorScheme-Text" d="m9 4v1h5l-6 14h-3v1h10v-1h-5l6-14h3v-1h-10z" fill="currentColor"/>
</svg>

<svg xmlns="http://www.w3.org/2000/svg" viewBox="0 0 24 24">
  <defs id="defs3051">
    <style type="text/css" id="current-color-scheme">
      .ColorScheme-Text {
        color:#363636;
      }
      </style>
  </defs>
 <path style="fill:currentColor;fill-opacity:1;stroke:none" 
     d="M 9 4 L 9 5 L 14 5 L 8 19 L 5 19 L 5 20 L 15 20 L 15 19 L 10 19 L 16 5 L 19 5 L 19 4 L 9 4 z "
     class="ColorScheme-Text"
     />
</svg>
